X:42
T:The Analgesic Reel
R:reel
C: 1979, 2010 L.E. McCullough  
M:4/4
L:1/8
K:Ador
|:~A3G EDEG|AG (3B^cd e~g3|a~g3 b~g3|edBA (3B^cd BG|
~A3G EDEG|AG (3B^cd e~g3|a~g3 bged|1 B~G3 ~A3G:|2 B~G3 ~A3d|] 
|:e~g3 aged|e~a3 b2ag|e~g3 aged|B~G3 ~A3d|
e~g3 aged|e~a3 b2ag|b~a3 eged|1 B~G3 ~A3d:|2 B~G3 ~A3G|]
<end>
<start>
